svg/u1f511.svg

<svg viewBox="0 0 128 128" xmlns="http://www.w3.org/2000/svg">
  <g>
    <path d="M107.77,15.16c-14.5-11.48-35.93-6.24-46.72,3.2c-12.08,10.56-12.42,27.25-6.13,40.88l-43.58,42.77 c-1.77,1.74-3.59,14.19-3.5,16.64l5.9,4.12c0,0,9.99,2.99,14.34-0.41s8.17-9.56,7.72-12.33c-0.26-1.59,0.08-3.07,1.11-4.08 c1.28-1.26,3.32-1.47,5.39-0.78c1.59,0.53,3.36,0.08,4.55-1.09l0.42-0.41c1.69-1.58,1.88-3.42,1.55-4.96 c-0.51-2.39,0.36-4.37,1.7-6.12c1.16-1.52,3.36-2.16,5.28-2.19c3.46-0.05,5.7-0.79,8.15-3.19l6.38-6.24 c14.36,6.4,31.97,3.51,43.4-8.68C128.39,56.65,124.64,28.52,107.77,15.16z M99.13,48.51c-4,3.92-10.48,3.92-14.48,0 c-4-3.92-4-10.29,0-14.21c4-3.92,10.48-3.92,14.48,0C103.13,38.22,103.13,44.59,99.13,48.51z" fill="#9E740B"/>
    <path d="M107.77,15.16c-14.88-14.88-39-14.88-53.88,0c-11.39,11.39-14.05,28.18-8.01,42.11L7.83,95.08 c-1.79,1.79-2.76,4.24-2.67,6.76l0.44,11.75c2.17,1.22,2.24,5.07,2.24,5.07l9.9,0.76c2.53,0.08,4.98-0.89,6.76-2.67l3.14-3.14 c1.96-1.96,3.07-4.73,2.58-7.45c-0.31-1.69,0.03-3.27,1.1-4.34c1.26-1.26,3.23-1.5,5.26-0.87c1.69,0.53,3.53,0.19,4.79-1.06 l0.43-0.43c1.71-1.63,1.9-3.52,1.57-5.1c-0.51-2.46,0.37-4.49,1.71-6.29c1.17-1.57,3.4-2.22,5.33-2.25 c3.49-0.05,5.76-0.81,8.23-3.28l5.98-5.95c14.13,6.65,31.49,4.14,43.17-7.54C122.65,54.16,122.65,30.04,107.77,15.16z M94.17,43.38 c-4.04,4.04-10.59,4.04-14.62,0c-4.04-4.04-4.04-10.59,0-14.62c4.04-4.04,10.59-4.04,14.62,0C98.21,32.79,98.21,39.34,94.17,43.38z " fill="#FFCA28"/>
    <path d="M5.6,113.59c0,0,1.24,0.84,2.24,5.07l47.48-48.27c1.55-1.7-5.4-0.82-7.48,1.25L5.6,113.59z" fill="#DBA010"/>
    <path d="M60.43,19.92c-3.9,2.12-8.3,7.8-9.51,16c-1.1,7.44-0.63,12.61,1.87,16.96 c2.83,4.91,6.68,2.31,5.13-2.47c-1.02-3.15-1.28-4.34-1.42-7.68c-0.11-2.61,0.16-5.24,0.9-7.74c1.84-6.2,6.11-10.27,7.36-12.28 C66.35,20.14,63.84,18.05,60.43,19.92z" fill="#FFF59D"/>
    <path d="M33.05,79.72c-2.84,2.42,0.1-5.11,2.28-7.65c2.87-3.36,9.67-10.49,10.87-11.1 c1.64-0.83,1.54,3.75,0.87,4.59C44.69,68.5,35.9,77.3,33.05,79.72z" fill="#FFF59D"/>
  </g>
</svg>

<svg viewBox="0 0 128 128" xmlns="http://www.w3.org/2000/svg">
  <defs/>
  <path d="M107.77,15.16 C93.27,3.68 71.84,8.92 61.05,18.36 C48.97,28.92 48.63,45.61 54.92,59.24 L11.34,102.01 C9.57,103.75 7.75,116.2 7.84,118.65 L13.74,122.77 C13.74,122.77 23.73,125.76 28.08,122.36 C32.43,118.96 36.25,112.8 35.8,110.03 C35.54,108.44 35.88,106.96 36.91,105.95 C38.19,104.69 40.23,104.48 42.3,105.17 C43.89,105.7 45.66,105.25 46.85,104.08 L47.27,103.67 C48.96,102.09 49.15,100.25 48.82,98.71 C48.31,96.32 49.18,94.34 50.52,92.59 C51.68,91.07 53.88,90.43 55.8,90.4 C59.26,90.35 61.5,89.61 63.95,87.21 L70.33,80.97 C84.69,87.37 102.3,84.48 113.73,72.29 C128.39,56.65 124.64,28.52 107.77,15.16 Z M99.13,48.51 C95.13,52.43 88.65,52.43 84.65,48.51 C80.65,44.59 80.65,38.22 84.65,34.3 C88.65,30.38 95.13,30.38 99.13,34.3 C103.13,38.22 103.13,44.59 99.13,48.51 Z" fill="#9E740B"/>
  <path d="M107.77,15.16 C92.89,0.28 68.77,0.28 53.89,15.16 C42.5,26.55 39.84,43.34 45.88,57.27 L7.83,95.08 C6.04,96.87 5.07,99.32 5.16,101.84 L5.6,113.59 C7.77,114.81 7.84,118.66 7.84,118.66 L17.74,119.42 C20.27,119.5 22.72,118.53 24.5,116.75 L27.64,113.61 C29.6,111.65 30.71,108.88 30.22,106.16 C29.91,104.47 30.25,102.89 31.32,101.82 C32.58,100.56 34.55,100.32 36.58,100.95 C38.27,101.48 40.11,101.14 41.37,99.89 L41.8,99.46 C43.51,97.83 43.7,95.94 43.37,94.36 C42.86,91.9 43.74,89.87 45.08,88.07 C46.25,86.5 48.48,85.85 50.41,85.82 C53.9,85.77 56.17,85.01 58.64,82.54 L64.62,76.59 C78.75,83.24 96.11,80.73 107.79,69.05 C122.65,54.16 122.65,30.04 107.77,15.16 Z M94.17,43.38 C90.13,47.42 83.58,47.42 79.55,43.38 C75.51,39.34 75.51,32.79 79.55,28.76 C83.59,24.72 90.14,24.72 94.17,28.76 C98.21,32.79 98.21,39.34 94.17,43.38 Z" fill="#FFCA28"/>
  <path d="M5.6,113.59 C5.6,113.59 6.84,114.43 7.84,118.66 L55.32,70.39 C56.87,68.69 49.92,69.57 47.84,71.64 L5.6,113.59 Z" fill="#DBA010"/>
  <path d="M60.43,19.92 C56.53,22.04 52.13,27.72 50.92,35.92 C49.82,43.36 50.29,48.53 52.79,52.88 C55.62,57.79 59.47,55.19 57.92,50.41 C56.9,47.26 56.64,46.07 56.5,42.73 C56.39,40.12 56.66,37.49 57.4,34.99 C59.24,28.79 63.51,24.72 64.76,22.71 C66.35,20.14 63.84,18.05 60.43,19.92 Z" fill="#FFF59D"/>
  <path d="M33.05,79.72 C30.21,82.14 33.15,74.61 35.33,72.07 C38.2,68.71 45,61.58 46.2,60.97 C47.84,60.14 47.74,64.72 47.07,65.56 C44.69,68.5 35.9,77.3 33.05,79.72 Z" fill="#FFF59D"/>
</svg>
